X:1808
T:Vals Akabat, tredjestämma första reprisen
R:Vals
C: Anton Teljebäck
Z:Anton Teljebäck
M:3/4
L:1/8
K:A
|aa |a2 a(a a)a | af e2 aa | a2 a(a a)a | af e2 aa |a2 a(a a)a | af e2 aa | e2 e(d d)d | c2 c2 :|
(:musicend:)


(:music:)
